X: 2100
T:Les Poules Houpees
M:3/8
L:1/16
Q:80
K:Dm
D2DF ED|A4 A=B|c=BAd cB|c=BAB AG|D2DF ED|A4 A=B|c=BAd Bd|A4:|!
de|fA f2 ed|B2 B2 de|fdgf ed|^c2d2e2|fA f2 ed|B4 de|fdgf ec|d4:|!
